!!! OTL: Literature136
!!! Chapter: 5
!!! Section: IV
!!! Page: 377
!!! Mode: 
!!! Encoder: DJB
**kern
*staff1
*I"Piano
=1-
*clefF4
*k[f#c#]
*b:
*M4/4
4r
4r
4r
4e\
=2
4e\
4d#\
4r
4dn\
=3
4d\
4c#\
4r
4B\
=4
4B\
4A#\
4An\
4F#\
=5
4F#\
8E\L
8F#\J
8D\L
8C#\
8BB\
8B\J
=6
4B\
4A#\
4r
4An\
=7
4A\
4G#\
4r
4F#\
=8
4F#\
4E#\
4En\
4D\
=9
!!linebreak:original
4C#/
8D/L
8C#/J
4BB/
4r
==
*-
